glitch-avatars-svg/base_avatar/Avatar.fla/placeholder symbols 3/Avatar_sideArmUpperClose3.svg

<?xml version="1.0" encoding="UTF-8" standalone="no"?>
<!-- Generator: flash2svg, http://dissentgraphics.com/tools/flash2svg -->

<svg
   xmlns:dc="http://purl.org/dc/elements/1.1/"
   xmlns:cc="http://creativecommons.org/ns#"
   xmlns:rdf="http://www.w3.org/1999/02/22-rdf-syntax-ns#"
   xmlns:svg="http://www.w3.org/2000/svg"
   xmlns="http://www.w3.org/2000/svg"
   xmlns:sodipodi="http://sodipodi.sourceforge.net/DTD/sodipodi-0.dtd"
   xmlns:inkscape="http://www.inkscape.org/namespaces/inkscape"
   id="Avatar"
   image-rendering="auto"
   version="1.1"
   x="0px"
   y="0px"
   width="8.6806192"
   height="16.948528"
   viewBox="0 0 8.6806192 16.948528"
   inkscape:version="0.48.4 r9939"
   sodipodi:docname="Avatar_sideArmUpperClose3.svg">
  <metadata
     id="metadata3038">
    <rdf:RDF>
      <cc:Work
         rdf:about="">
        <dc:format>image/svg+xml</dc:format>
        <dc:type
           rdf:resource="http://purl.org/dc/dcmitype/StillImage" />
      </cc:Work>
    </rdf:RDF>
  </metadata>
  <sodipodi:namedview
     pagecolor="#ffffff"
     bordercolor="#666666"
     borderopacity="1"
     objecttolerance="10"
     gridtolerance="10"
     guidetolerance="10"
     inkscape:pageopacity="0"
     inkscape:pageshadow="2"
     inkscape:window-width="640"
     inkscape:window-height="480"
     id="namedview3036"
     showgrid="false"
     fit-margin-top="0"
     fit-margin-left="0"
     fit-margin-right="0"
     fit-margin-bottom="0"
     inkscape:zoom="1.8730159"
     inkscape:cx="39.224225"
     inkscape:cy="21.310667"
     inkscape:window-x="0"
     inkscape:window-y="0"
     inkscape:window-maximized="0"
     inkscape:current-layer="Avatar" />
  <defs
     id="defs3020">
    <radialGradient
       gradientUnits="userSpaceOnUse"
       color-interpolation="sRGB"
       r="8.8820133"
       cx="0.5"
       cy="3.05"
       fx="0.5"
       fy="3.05"
       gradientTransform="matrix(-0.29525757,0.95542908,0.73258972,0.22145081,-1.599,1.85)"
       id="radialGradient">
      <stop
         stop-color="#FFF"
         stop-opacity="0.7058823529411765"
         offset="0"
         id="stop3023" />
      <stop
         stop-color="#FFF"
         stop-opacity="0.2980392156862745"
         offset="1"
         id="stop3025" />
    </radialGradient>
    <radialGradient
       gradientUnits="userSpaceOnUse"
       color-interpolation="sRGB"
       r="8.882"
       cx="-1.049"
       cy="4.9000001"
       fx="-1.049"
       fy="4.9000001"
       gradientTransform="matrix(-0.295,0.955,0.733,0.221,-3.249,2.9)"
       id="radialGradient1">
      <stop
         stop-color="#FFF"
         stop-opacity="0.7058823529411765"
         offset="0"
         id="stop3028" />
      <stop
         stop-color="#FFF"
         stop-opacity="0.2980392156862745"
         offset="1"
         id="stop3030" />
    </radialGradient>
  </defs>
  <g
     id="sideArmUpperClose4"
     overflow="visible"
     style="overflow:visible"
     transform="translate(5.2242248,1.7)">
    <g
       id="sideArmUpperClose3_0">
      <g
         id="element">
        <path
           id="path"
           d="m 2.25,-0.5 c -0.5,-0.7 -1.1,-1.1 -1.75,-1.2 -0.2,0 -0.35,0 -0.55,0.05 C -1,-1.3 -2,0.45 -3.15,3.5 -5,8.75 -5.6,11.85 -5,12.7 c 0.65,0.9 1.5,1.75 2.55,2.25 L -2.6,15 l 0.3,0 c 0.75,0.3 1.45,0.3 1.95,0.15 l 0.1,-0.05 C 0.5,14.8 1.2,13.85 1.85,12.25 2.4,10.85 2.85,9.2 3.2,7.25 3.45,5.8 3.55,4.45 3.35,3.05 3.25,1.5 2.85,0.35 2.25,-0.5 z M 0.55,-1.4 C 0.35,-1.4 0.2,-1.25 0,-1.1 -0.3,-0.7 -0.55,-0.4 -0.75,0 L -1.3,0.1 c 0.5,-0.9 0.95,-1.35 1.35,-1.5 L 0.4,-1.45 0.55,-1.4 z m -0.15,1.35 -0.85,0 0.55,-0.8 0.25,-0.2 0.05,1 z M 0.8,-1.2 c 0.25,0.2 0.45,0.45 0.55,0.55 0.2,0.25 0.35,0.45 0.45,0.7 L 0.65,0 0.65,-1.15 0.8,-1.2 z m 0.45,0.05 C 1.6,-0.9 1.9,-0.65 2.1,-0.4 L 2.4,0.2 2.05,0.15 C 1.9,-0.2 1.75,-0.5 1.6,-0.75 L 1.25,-1.15 z M 3,2.1 2.6,1.95 C 2.45,1.4 2.35,0.95 2.15,0.45 L 2.6,0.5 3,2.1 z M 3.1,2.5 3.25,4.2 2.75,3.9 2.65,2.25 3.1,2.5 z M 0.3,1.4 c -0.4,0 -1,0 -1.65,0.05 l 0.7,-1.2 1,-0.05 L 0.3,1.4 z M 2.35,1.8 0.6,1.5 0.65,0.2 C 0.8,0.2 1.3,0.25 1.9,0.35 2.15,1 2.25,1.5 2.35,1.8 z m 0,0.4 C 2.45,2.7 2.45,3.25 2.5,3.8 1.95,3.55 1.25,3.3 0.3,3.1 L 0.55,1.8 c 0.65,0 1.25,0.1 1.8,0.4 z M 2.5,4.15 2.35,6.25 C 1.6,5.85 0.8,5.55 -0.05,5.35 l 0.3,-1.9 C 0.95,3.5 1.7,3.75 2.5,4.15 z M 3.25,4.55 3.1,6.7 2.5,6.4 C 2.65,5.6 2.7,4.9 2.75,4.25 l 0.5,0.3 z M 0.1,3.1 C -0.5,3.05 -1.2,2.95 -2.15,3.1 L -1.5,1.75 C -0.95,1.7 -0.35,1.65 0.25,1.7 L 0.1,3.1 z M 3,7.2 2.65,8.85 2.05,8.55 2.05,8.5 2.5,6.95 2.5,6.65 3,6.95 3,7.2 z M 1.9,8.4 C 1.05,7.95 0.25,7.7 -0.4,7.6 l 0.3,-1.95 c 0.85,0.15 1.65,0.5 2.4,0.9 L 1.9,8.4 z M 0.8,10.8 C 0.35,10.55 -0.2,10.2 -0.9,10 L -0.45,7.8 C 0.3,7.95 1.05,8.25 1.75,8.7 1.7,9.35 1.45,10.1 1.1,11.05 L 0.8,10.8 z m 0.15,0.45 -0.6,1.5 c -0.6,-0.35 -1.15,-0.6 -1.8,-0.75 0.05,-0.15 0.3,-0.75 0.5,-1.75 0.5,0.15 1,0.45 1.6,0.85 l 0.3,0.15 z m 0.85,0.6 c -0.4,0.85 -0.6,1.3 -0.7,1.4 L 0.55,12.9 1.2,11.4 1.8,11.85 z M 1.25,11.15 2.05,8.8 2.6,9.15 C 2.4,9.95 2.2,10.7 1.85,11.6 l -0.6,-0.45 z m -0.3,2.4 c -0.4,0.7 -0.85,1.2 -1.3,1.35 l -0.1,0.05 c -0.4,0.1 -0.8,0.1 -1.2,0 l 0.2,-0.05 0.1,-0.05 c 0.6,-0.2 1.2,-0.75 1.7,-1.75 l 0.6,0.45 z M -1.6,1.45 -2.1,1.55 -1.45,0.3 -0.9,0.3 -1.6,1.45 z M -1.75,1.8 c -0.3,0.5 -0.55,1 -0.6,1.3 l -0.35,0 0.5,-1.25 0.45,-0.05 z m -1.5,3.65 -0.45,1.95 -0.45,0.05 0.6,-1.9 0.3,-0.1 z M -3.45,5.3 -2.8,3.45 -2.5,3.4 C -2.7,3.8 -2.95,4.45 -3.25,5.25 L -3.45,5.3 z M -0.3,5.6 -0.65,7.55 C -1.45,7.4 -2.4,7.35 -3.45,7.4 l 0.4,-1.95 c 0.95,-0.05 1.9,0 2.75,0.15 z M -2.95,5.2 -2.25,3.35 C -1.5,3.25 -0.7,3.3 0.05,3.4 L -0.3,5.35 C -1.4,5.2 -2.25,5.1 -2.95,5.2 z m -0.75,2.45 -0.55,2.05 -0.5,0.1 0.5,-2.05 0.55,-0.1 z m -0.95,4.55 0,0.55 -0.1,-0.2 C -4.85,12.5 -4.9,12.4 -4.9,12.2 l 0.25,0 z M -4.95,12 c -0.1,-0.35 0,-1 0.1,-1.95 L -4.35,10 c -0.25,1.05 -0.3,1.75 -0.3,1.95 L -4.95,12 z M -4.1,9.95 c 1.05,-0.15 2,0 2.9,0.25 l -0.5,1.75 c -0.95,-0.15 -1.8,-0.2 -2.75,0 0,-0.55 0.15,-1.15 0.35,-2 z m 0.55,-2.3 c 0.9,-0.1 1.8,-0.05 2.85,0.15 L -1.15,9.95 C -1.95,9.7 -2.9,9.6 -4,9.65 l 0.45,-2 z m 1.75,4.6 c -0.35,0.9 -0.65,1.65 -1,2.25 L -4,13.55 -4.05,13.5 c -0.3,-0.3 -0.45,-0.75 -0.4,-1.35 0.85,-0.1 1.8,-0.1 2.65,0.1 z m 0.35,2.45 -0.6,0.1 -0.05,0 -0.4,-0.2 c 0.35,-0.6 0.65,-1.4 1,-2.3 0.65,0.15 1.2,0.4 1.7,0.75 -0.6,0.85 -1.1,1.4 -1.6,1.6 l -0.05,0.05 z"
           inkscape:connector-curvature="0"
           style="fill:url(#radialGradient1)" />
      </g>
    </g>
  </g>
</svg>

<?xml version="1.0" encoding="utf-8"?>
<!-- Generator: flash2svg, http://dissentgraphics.com/tools/flash2svg -->
<svg xmlns:xlink="http://www.w3.org/1999/xlink" id="Avatar" image-rendering="auto" baseProfile="basic" version="1.1" x="0px" y="0px" width="68" height="126" xmlns="http://www.w3.org/2000/svg" viewBox="0 0 68 126">
  <defs>
    <radialGradient gradientUnits="userSpaceOnUse" color-interpolation="sRGB" r="8.882013439926071" cx="0.5" cy="3.05" fx="0.5" fy="3.05" gradientTransform="matrix(-0.295257568359375 0.9554290771484375 0.7325897216796875 0.2214508056640625 -1.599 1.85)" id="radialGradient">
      <stop stop-color="#FFF" stop-opacity="0.7058823529411765" offset="0"/>
      <stop stop-color="#FFF" stop-opacity="0.2980392156862745" offset="1"/>
    </radialGradient>
    <radialGradient gradientUnits="userSpaceOnUse" color-interpolation="sRGB" r="8.882" cx="-1.049" cy="4.9" fx="-1.049" fy="4.9" gradientTransform="matrix(-0.295 0.955 0.733 0.221 -3.249 2.9)" id="radialGradient1">
      <stop stop-color="#FFF" stop-opacity="0.7058823529411765" offset="0"/>
      <stop stop-color="#FFF" stop-opacity="0.2980392156862745" offset="1"/>
    </radialGradient>
  </defs>
  <g id="sideArmUpperClose4" overflow="visible">
    <g id="sideArmUpperClose3_0">
      <g id="element">
        <path id="path" fill="url(#radialGradient1)" d="M2.25,-0.5 C1.75,-1.2 1.15,-1.6 0.5,-1.7 0.3,-1.7 0.15,-1.7 -0.05,-1.65 -1,-1.3 -2,0.45 -3.15,3.5 -5,8.75 -5.6,11.85 -5,12.7 -4.35,13.6 -3.5,14.45 -2.45,14.95 L-2.6,15 -2.3,15 C-1.55,15.3 -0.85,15.3 -0.35,15.15 L-0.25,15.1 C0.5,14.8 1.2,13.85 1.85,12.25 2.4,10.85 2.85,9.2 3.2,7.25 3.45,5.8 3.55,4.45 3.35,3.05 3.25,1.5 2.85,0.35 2.25,-0.5z M0.55,-1.4 C0.35,-1.4 0.2,-1.25 0,-1.1 -0.3,-0.7 -0.55,-0.4 -0.75,0 L-1.3,0.1 C-0.8,-0.8 -0.35,-1.25 0.05,-1.4 L0.4,-1.45 0.55,-1.4z M0.4,-0.05 L-0.45,-0.05 0.1,-0.85 0.35,-1.05 0.4,-0.05z M0.8,-1.2 C1.05,-1 1.25,-0.75 1.35,-0.65 1.55,-0.4 1.7,-0.2 1.8,0.05 L0.65,0 0.65,-1.15 0.8,-1.2z M1.25,-1.15 C1.6,-0.9 1.9,-0.65 2.1,-0.4 L2.4,0.2 2.05,0.15 C1.9,-0.2 1.75,-0.5 1.6,-0.75 L1.25,-1.15z M3,2.1 L2.6,1.95 C2.45,1.4 2.35,0.95 2.15,0.45 L2.6,0.5 3,2.1z M3.1,2.5 L3.25,4.2 2.75,3.9 2.65,2.25 3.1,2.5z M0.3,1.4 C-0.1,1.4 -0.7,1.4 -1.35,1.45 L-0.65,0.25 0.35,0.2 0.3,1.4z M2.35,1.8 L0.6,1.5 0.65,0.2 C0.8,0.2 1.3,0.25 1.9,0.35 2.15,1 2.25,1.5 2.35,1.8z M2.35,2.2 C2.45,2.7 2.45,3.25 2.5,3.8 1.95,3.55 1.25,3.3 0.3,3.1 L0.55,1.8 C1.2,1.8 1.8,1.9 2.35,2.2z M2.5,4.15 L2.35,6.25 C1.6,5.85 0.8,5.55 -0.05,5.35 L0.25,3.45 C0.95,3.5 1.7,3.75 2.5,4.15z M3.25,4.55 L3.1,6.7 2.5,6.4 C2.65,5.6 2.7,4.9 2.75,4.25 L3.25,4.55z M0.1,3.1 C-0.5,3.05 -1.2,2.95 -2.15,3.1 L-1.5,1.75 C-0.95,1.7 -0.35,1.65 0.25,1.7 L0.1,3.1z M3,7.2 L2.65,8.85 2.05,8.55 2.05,8.5 2.5,6.95 2.5,6.65 3,6.95 3,7.2z M1.9,8.4 C1.05,7.95 0.25,7.7 -0.4,7.6 L-0.1,5.65 C0.75,5.8 1.55,6.15 2.3,6.55 L1.9,8.4z M0.8,10.8 C0.35,10.55 -0.2,10.2 -0.9,10 L-0.45,7.8 C0.3,7.95 1.05,8.25 1.75,8.7 1.7,9.35 1.45,10.1 1.1,11.05 L0.8,10.8z M0.95,11.25 L0.35,12.75 C-0.25,12.4 -0.8,12.15 -1.45,12 -1.4,11.85 -1.15,11.25 -0.95,10.25 -0.45,10.4 0.05,10.7 0.65,11.1 L0.95,11.25z M1.8,11.85 C1.4,12.7 1.2,13.15 1.1,13.25 L0.55,12.9 1.2,11.4 1.8,11.85z M1.25,11.15 L2.05,8.8 2.6,9.15 C2.4,9.95 2.2,10.7 1.85,11.6 L1.25,11.15z M0.95,13.55 C0.55,14.25 0.1,14.75 -0.35,14.9 L-0.45,14.95 C-0.85,15.05 -1.25,15.05 -1.65,14.95 L-1.45,14.9 -1.35,14.85 C-0.75,14.65 -0.15,14.1 0.35,13.1 L0.95,13.55z M-1.6,1.45 L-2.1,1.55 -1.45,0.3 -0.9,0.3 -1.6,1.45z M-1.75,1.8 C-2.05,2.3 -2.3,2.8 -2.35,3.1 L-2.7,3.1 -2.2,1.85 -1.75,1.8z M-3.25,5.45 L-3.7,7.4 -4.15,7.45 -3.55,5.55 -3.25,5.45z M-3.45,5.3 L-2.8,3.45 -2.5,3.4 C-2.7,3.8 -2.95,4.45 -3.25,5.25 L-3.45,5.3z M-0.3,5.6 L-0.65,7.55 C-1.45,7.4 -2.4,7.35 -3.45,7.4 L-3.05,5.45 C-2.1,5.4 -1.15,5.45 -0.3,5.6z M-2.95,5.2 L-2.25,3.35 C-1.5,3.25 -0.7,3.3 0.05,3.4 L-0.3,5.35 C-1.4,5.2 -2.25,5.1 -2.95,5.2z M-3.7,7.65 L-4.25,9.7 -4.75,9.8 -4.25,7.75 -3.7,7.65z M-4.65,12.2 L-4.65,12.75 -4.75,12.55 C-4.85,12.5 -4.9,12.4 -4.9,12.2 L-4.65,12.2z M-4.95,12 C-5.05,11.65 -4.95,11 -4.85,10.05 L-4.35,10 C-4.6,11.05 -4.65,11.75 -4.65,11.95 L-4.95,12z M-4.1,9.95 C-3.05,9.8 -2.1,9.95 -1.2,10.2 L-1.7,11.95 C-2.65,11.8 -3.5,11.75 -4.45,11.95 -4.45,11.4 -4.3,10.8 -4.1,9.95z M-3.55,7.65 C-2.65,7.55 -1.75,7.6 -0.7,7.8 L-1.15,9.95 C-1.95,9.7 -2.9,9.6 -4,9.65 L-3.55,7.65z M-1.8,12.25 C-2.15,13.15 -2.45,13.9 -2.8,14.5 L-4,13.55 -4.05,13.5 C-4.35,13.2 -4.5,12.75 -4.45,12.15 -3.6,12.05 -2.65,12.05 -1.8,12.25z M-1.45,14.7 L-2.05,14.8 -2.1,14.8 -2.5,14.6 C-2.15,14 -1.85,13.2 -1.5,12.3 -0.85,12.45 -0.3,12.7 0.2,13.05 -0.4,13.9 -0.9,14.45 -1.4,14.65 L-1.45,14.7z"/>
      </g>
    </g>
  </g>
</svg>
